images_sukapura_svg/cmd/sc_switchxformsdesignmode.svg

<svg viewBox="0 0 16 16" xmlns="http://www.w3.org/2000/svg" xmlns:xlink="http://www.w3.org/1999/xlink"><linearGradient id="a" gradientUnits="userSpaceOnUse" x1="9.491526" x2="8.81356" y1="1.084746" y2="15.18644"><stop offset="0" stop-color="#848489"/><stop offset="1" stop-color="#616165"/></linearGradient><linearGradient id="b" gradientUnits="userSpaceOnUse" x1="61" x2="61" y1="29" y2="18"><stop offset="0" stop-color="#e9e9e9"/><stop offset=".2857143" stop-color="#f2f2f2"/><stop offset="1" stop-color="#fbfbfb"/></linearGradient>




     /&amp;amp;amp;gt;
 <path d="m1 4h14v11h-14z" fill="url(#b)"/><path d="m1 0c-.554 0-1 .446-1 1v14c0 .554.446 1 1 1h14c.554 0 1-.446 1-1v-14c0-.554-.446-1-1-1zm0 4h14v11h-14z" fill="url(#a)"/><g fill="#98989d"><path d="m6.5 6c-.277 0-.5.223-.5.5v2c0 .277.223.5.5.5h7c.277 0 .5-.223.5-.5v-2c0-.277-.223-.5-.5-.5zm.5 1h6v1h-6z"/><path d="m6.5 10c-.277 0-.5.223-.5.5v2c0 .277.223.5.5.5h7c.277 0 .5-.223.5-.5v-2c0-.277-.223-.5-.5-.5zm.5 1h6v1h-6z"/><path d="m2.5 6c-.277 0-.5.223-.5.5v2c0 .277.223.5.5.5h2c.277 0 .5-.223.5-.5v-2c0-.277-.223-.5-.5-.5zm.5 1h1v1h-1z"/><path d="m2.5 10c-.277 0-.5.223-.5.5v2c0 .277.223.5.5.5h2c.277 0 .5-.223.5-.5v-2c0-.277-.223-.5-.5-.5zm.5 1h1v1h-1z"/></g><path d="m0 2.5 12.5 13.5h-12c-.298752 0-.5-.285239-.5-.5z" fill="#fff" fill-opacity=".784314"/><path d="m.5 5.0000003 9.5 10.4999997h-9.5zm2 5.4999997v.976392 2.023608h2 .5z" fill="#fc0" fill-rule="evenodd" stroke="#c89e00"/></svg>

<?xml version="1.0" encoding="UTF-8" standalone="no"?>
<svg
   xmlns:dc="http://purl.org/dc/elements/1.1/"
   xmlns:cc="http://creativecommons.org/ns#"
   xmlns:rdf="http://www.w3.org/1999/02/22-rdf-syntax-ns#"
   xmlns:svg="http://www.w3.org/2000/svg"
   xmlns="http://www.w3.org/2000/svg"
   xmlns:sodipodi="http://sodipodi.sourceforge.net/DTD/sodipodi-0.dtd"
   xmlns:inkscape="http://www.inkscape.org/namespaces/inkscape"
   viewBox="0 0 16 16"
   version="1.1"
   id="svg32"
   sodipodi:docname="sc_switchxformsdesignmode.svg"
   inkscape:version="0.92.4 (unknown)"><metadata
   id="metadata38">
  <rdf:RDF>
    <cc:Work
       rdf:about="">
      <dc:format>image/svg+xml</dc:format>
      <dc:type
         rdf:resource="http://purl.org/dc/dcmitype/StillImage" />
    </cc:Work>
  </rdf:RDF>
</metadata>
<defs
   id="defs36" />
<sodipodi:namedview
   pagecolor="#ffffff"
   bordercolor="#666666"
   borderopacity="1"
   objecttolerance="10"
   gridtolerance="10"
   guidetolerance="10"
   inkscape:pageopacity="0"
   inkscape:pageshadow="2"
   inkscape:window-width="1360"
   inkscape:window-height="714"
   id="namedview34"
   showgrid="false"
   inkscape:zoom="14.75"
   inkscape:cx="-1.4576271"
   inkscape:cy="8"
   inkscape:window-x="0"
   inkscape:window-y="28"
   inkscape:window-maximized="1"
   inkscape:current-layer="svg32" />
<linearGradient
   id="a"
   gradientUnits="userSpaceOnUse"
   x1="9.491526"
   x2="8.81356"
   y1="1.084746"
   y2="15.18644">
  <stop
     offset="0"
     stop-color="#848489"
     id="stop2" />
  <stop
     offset="1"
     stop-color="#616165"
     id="stop4" />
</linearGradient>
<linearGradient
   id="b"
   gradientUnits="userSpaceOnUse"
   x1="61"
   x2="61"
   y1="29"
   y2="18">
  <stop
     offset="0"
     stop-color="#e9e9e9"
     id="stop7" />
  <stop
     offset=".2857143"
     stop-color="#f2f2f2"
     id="stop9" />
  <stop
     offset="1"
     stop-color="#fbfbfb"
     id="stop11" />
</linearGradient>




     /&amp;amp;gt;
 <path
   d="m1 4h14v11h-14z"
   fill="url(#b)"
   id="path14" />
<path
   d="m1 0c-.554 0-1 .446-1 1v14c0 .554.446 1 1 1h14c.554 0 1-.446 1-1v-14c0-.554-.446-1-1-1zm0 4h14v11h-14z"
   fill="url(#a)"
   id="path16" />
<g
   fill="#98989d"
   id="g26">
  <path
     d="m6.5 6c-.277 0-.5.223-.5.5v2c0 .277.223.5.5.5h7c.277 0 .5-.223.5-.5v-2c0-.277-.223-.5-.5-.5zm.5 1h6v1h-6z"
     id="path18" />
  <path
     d="m6.5 10c-.277 0-.5.223-.5.5v2c0 .277.223.5.5.5h7c.277 0 .5-.223.5-.5v-2c0-.277-.223-.5-.5-.5zm.5 1h6v1h-6z"
     id="path20" />
  <path
     d="m2.5 6c-.277 0-.5.223-.5.5v2c0 .277.223.5.5.5h2c.277 0 .5-.223.5-.5v-2c0-.277-.223-.5-.5-.5zm.5 1h1v1h-1z"
     id="path22" />
  <path
     d="m2.5 10c-.277 0-.5.223-.5.5v2c0 .277.223.5.5.5h2c.277 0 .5-.223.5-.5v-2c0-.277-.223-.5-.5-.5zm.5 1h1v1h-1z"
     id="path24" />
</g>
<path
   d="M 0,2.5 12.5,16 H 0.5 C 0.201248,16 0,15.714761 0,15.5 Z"
   id="path26"
   inkscape:connector-curvature="0"
   style="fill:#ffffff;fill-opacity:0.78431396"
   sodipodi:nodetypes="ccssc" />
<path
   inkscape:connector-curvature="0"
   style="fill:#ffcc00;fill-rule:evenodd;stroke:#c89e00"
   d="M 0.5,5.0000003 10,15.5 H 0.5 Z M 2.5,10.5 V 11.476392 13.5 h 2 0.5 z"
   id="path13" />
</svg>
